versioned_docs/version-3.X/reference/data-models/gcp/img/gcp_disk_type.svg

<svg xmlns="http://www.w3.org/2000/svg" xmlns:xlink="http://www.w3.org/1999/xlink" width="400" height="1222" preserveAspectRatio="none" style="width:400px;height:1222px;background:#00000000"><a xlink:actuate="onRequest" xlink:href="#a" xlink:show="new" xlink:title="#gcp_resource" xlink:type="simple" target="_top"><rect id="a" width="169" height="93.398" x="7" y="963" fill="#3D176E" rx="2.5" ry="2.5" style="stroke:#000d19;stroke-width:1.5"/><circle cx="30.55" cy="982.894" r="11" fill="#E98DF7" style="stroke:#000d19;stroke-width:1"/><path d="M33.519 988.535q-.578.297-1.219.438-.64.156-1.344.156-2.5 0-3.828-1.64-1.312-1.657-1.312-4.782t1.312-4.781q1.328-1.657 3.828-1.657.703 0 1.344.157.656.156 1.219.453v2.719q-.625-.578-1.219-.844-.594-.281-1.219-.281-1.343 0-2.031 1.078-.688 1.062-.688 3.156 0 2.094.688 3.172.688 1.062 2.031 1.062.625 0 1.219-.265.594-.282 1.219-.86v2.72Z"/><text x="51.45" y="988.78" fill="#D9B8FF" font-family="Helvetica" font-size="17" textLength="108">gcp_resource</text><path d="M8 1002.789h167" style="stroke:#000d19;stroke-width:1.5"/><text x="18" y="1022" fill="#D9B8FF" font-family="sans-serif" font-size="11" font-weight="bold" textLength="23">link</text><text x="41" y="1022" fill="#D9B8FF" font-family="sans-serif" font-size="11" textLength="41">: string</text><text x="18" y="1044.804" fill="#D9B8FF" font-family="sans-serif" font-size="11" font-weight="bold" textLength="106">label_fingerprint</text><text x="124" y="1044.804" fill="#D9B8FF" font-family="sans-serif" font-size="11" textLength="41">: string</text></a><a xlink:actuate="onRequest" xlink:href="#b" xlink:show="new" xlink:title="#resource" xlink:type="simple" target="_top"><rect id="b" width="195" height="275.836" x="197" y="7" fill="#3D176E" rx="2.5" ry="2.5" style="stroke:#000d19;stroke-width:1.5"/><circle cx="249.75" cy="26.895" r="11" fill="#E98DF7" style="stroke:#000d19;stroke-width:1"/><path d="M252.719 32.535q-.578.297-1.219.438-.64.156-1.344.156-2.5 0-3.828-1.64-1.312-1.657-1.312-4.782t1.312-4.781q1.328-1.656 3.828-1.656.703 0 1.344.156.656.156 1.219.453v2.719q-.625-.578-1.219-.844-.594-.281-1.219-.281-1.344 0-2.031 1.078-.688 1.062-.688 3.156 0 2.094.688 3.172.688 1.062 2.031 1.062.625 0 1.219-.265.594-.281 1.219-.86v2.72Z"/><text x="275.25" y="32.78" fill="#D9B8FF" font-family="Helvetica" font-size="17" textLength="71">resource</text><path d="M198 46.789h193" style="stroke:#000d19;stroke-width:1.5"/><text x="208" y="65.999" fill="#D9B8FF" font-family="sans-serif" font-size="11" font-weight="bold" textLength="12">id</text><text x="220" y="65.999" fill="#D9B8FF" font-family="sans-serif" font-size="11" textLength="41">: string</text><text x="208" y="88.804" fill="#D9B8FF" font-family="sans-serif" font-size="11" font-weight="bold" textLength="28">tags</text><text x="236" y="88.804" fill="#D9B8FF" font-family="sans-serif" font-size="11" textLength="145">: dictionary[string, string]</text><text x="208" y="111.609" fill="#D9B8FF" font-family="sans-serif" font-size="11" font-weight="bold" textLength="35">name</text><text x="243" y="111.609" fill="#D9B8FF" font-family="sans-serif" font-size="11" textLength="41">: string</text><text x="208" y="134.414" fill="#D9B8FF" font-family="sans-serif" font-size="11" font-weight="bold" textLength="35">ctime</text><text x="243" y="134.414" fill="#D9B8FF" font-family="sans-serif" font-size="11" textLength="58">: datetime</text><text x="208" y="157.218" fill="#D9B8FF" font-family="sans-serif" font-size="11" font-weight="bold" textLength="24">age</text><text x="232" y="157.218" fill="#D9B8FF" font-family="sans-serif" font-size="11" textLength="55">: duration</text><text x="208" y="180.023" fill="#D9B8FF" font-family="sans-serif" font-size="11" font-weight="bold" textLength="39">mtime</text><text x="247" y="180.023" fill="#D9B8FF" font-family="sans-serif" font-size="11" textLength="58">: datetime</text><text x="208" y="202.828" fill="#D9B8FF" font-family="sans-serif" font-size="11" font-weight="bold" textLength="75">last_update</text><text x="283" y="202.828" fill="#D9B8FF" font-family="sans-serif" font-size="11" textLength="55">: duration</text><text x="208" y="225.632" fill="#D9B8FF" font-family="sans-serif" font-size="11" font-weight="bold" textLength="36">atime</text><text x="244" y="225.632" fill="#D9B8FF" font-family="sans-serif" font-size="11" textLength="58">: datetime</text><text x="208" y="248.437" fill="#D9B8FF" font-family="sans-serif" font-size="11" font-weight="bold" textLength="74">last_access</text><text x="282" y="248.437" fill="#D9B8FF" font-family="sans-serif" font-size="11" textLength="55">: duration</text><text x="208" y="271.242" fill="#D9B8FF" font-family="sans-serif" font-size="11" font-weight="bold" textLength="27">kind</text><text x="235" y="271.242" fill="#D9B8FF" font-family="sans-serif" font-size="11" textLength="41">: string</text></a><a xlink:actuate="onRequest" xlink:href="#c" xlink:show="new" xlink:title="#type" xlink:type="simple" target="_top"><rect id="c" width="79" height="39.789" x="255" y="802" fill="#3D176E" rx="2.5" ry="2.5" style="stroke:#000d19;stroke-width:1.5"/><circle cx="270" cy="821.894" r="11" fill="#E98DF7" style="stroke:#000d19;stroke-width:1"/><path d="M272.969 827.535q-.578.297-1.219.438-.64.156-1.344.156-2.5 0-3.828-1.64-1.312-1.657-1.312-4.782t1.312-4.781q1.328-1.657 3.828-1.657.703 0 1.344.157.656.156 1.219.453v2.719q-.625-.578-1.219-.844-.594-.281-1.219-.281-1.344 0-2.031 1.078-.688 1.062-.688 3.156 0 2.094.688 3.172.688 1.062 2.031 1.062.625 0 1.219-.265.594-.282 1.219-.86v2.72Z"/><text x="289" y="827.78" fill="#D9B8FF" font-family="Helvetica" font-size="17" textLength="37">type</text></a><a xlink:actuate="onRequest" xlink:href="#d" xlink:show="new" xlink:title="#quota" xlink:type="simple" target="_top"><rect id="d" width="134" height="116.203" x="227.5" y="565" fill="#3D176E" rx="2.5" ry="2.5" style="stroke:#000d19;stroke-width:1.5"/><circle cx="262.3" cy="584.894" r="11" fill="#E98DF7" style="stroke:#000d19;stroke-width:1"/><path d="M265.269 590.535q-.578.297-1.219.438-.64.156-1.344.156-2.5 0-3.828-1.64-1.312-1.657-1.312-4.782t1.312-4.781q1.328-1.657 3.828-1.657.703 0 1.344.157.656.156 1.219.453v2.719q-.625-.578-1.219-.844-.594-.281-1.219-.281-1.344 0-2.031 1.078-.688 1.062-.688 3.156 0 2.094.688 3.172.688 1.062 2.031 1.062.625 0 1.219-.265.594-.282 1.219-.86v2.72Z"/><text x="285.7" y="590.78" fill="#D9B8FF" font-family="Helvetica" font-size="17" textLength="48">quota</text><path d="M228.5 604.789h132" style="stroke:#000d19;stroke-width:1.5"/><text x="238.5" y="624" fill="#D9B8FF" font-family="sans-serif" font-size="11" font-weight="bold" textLength="37">quota</text><text x="275.5" y="624" fill="#D9B8FF" font-family="sans-serif" font-size="11" textLength="46">: double</text><text x="238.5" y="646.804" fill="#D9B8FF" font-family="sans-serif" font-size="11" font-weight="bold" textLength="39">usage</text><text x="277.5" y="646.804" fill="#D9B8FF" font-family="sans-serif" font-size="11" textLength="46">: double</text><text x="238.5" y="669.609" fill="#D9B8FF" font-family="sans-serif" font-size="11" font-weight="bold" textLength="71">quota_type</text><text x="309.5" y="669.609" fill="#D9B8FF" font-family="sans-serif" font-size="11" textLength="41">: string</text></a><a xlink:actuate="onRequest" xlink:href="#e" xlink:show="new" xlink:title="#gcp_disk_type" xlink:type="simple" target="_top"><rect id="e" width="158" height="39.789" x="80.5" y="1177" fill="#3D176E" rx="2.5" ry="2.5" style="stroke:#000d19;stroke-width:1.5"/><circle cx="95.5" cy="1196.895" r="11" fill="#E98DF7" style="stroke:#000d19;stroke-width:1"/><path d="M98.469 1202.535q-.578.297-1.219.438-.64.156-1.344.156-2.5 0-3.828-1.64-1.312-1.657-1.312-4.782t1.312-4.781q1.328-1.656 3.828-1.656.703 0 1.344.156.656.156 1.219.453v2.719q-.625-.578-1.219-.844-.594-.281-1.219-.281-1.344 0-2.031 1.078-.688 1.062-.688 3.156 0 2.094.688 3.172.688 1.062 2.031 1.062.625 0 1.219-.265.594-.281 1.219-.86v2.72Z"/><text x="114.5" y="1202.78" fill="#D9B8FF" font-family="Helvetica" font-size="17" textLength="116">gcp_disk_type</text></a><a xlink:actuate="onRequest" xlink:href="#f" xlink:show="new" xlink:title="#volume_type" xlink:type="simple" target="_top"><rect id="f" width="168" height="93.398" x="210.5" y="963" fill="#3D176E" rx="2.5" ry="2.5" style="stroke:#000d19;stroke-width:1.5"/><circle cx="233.15" cy="982.894" r="11" fill="#E98DF7" style="stroke:#000d19;stroke-width:1"/><path d="M236.119 988.535q-.578.297-1.219.438-.64.156-1.344.156-2.5 0-3.828-1.64-1.312-1.657-1.312-4.782t1.312-4.781q1.328-1.657 3.828-1.657.703 0 1.344.157.656.156 1.219.453v2.719q-.625-.578-1.219-.844-.594-.281-1.219-.281-1.344 0-2.031 1.078-.688 1.062-.688 3.156 0 2.094.688 3.172.688 1.062 2.031 1.062.625 0 1.219-.265.594-.282 1.219-.86v2.72Z"/><text x="253.85" y="988.78" fill="#D9B8FF" font-family="Helvetica" font-size="17" textLength="109">volume_type</text><path d="M211.5 1002.789h166" style="stroke:#000d19;stroke-width:1.5"/><text x="221.5" y="1022" fill="#D9B8FF" font-family="sans-serif" font-size="11" font-weight="bold" textLength="80">volume_type</text><text x="301.5" y="1022" fill="#D9B8FF" font-family="sans-serif" font-size="11" textLength="41">: string</text><text x="221.5" y="1044.804" fill="#D9B8FF" font-family="sans-serif" font-size="11" font-weight="bold" textLength="100">ondemand_cost</text><text x="321.5" y="1044.804" fill="#D9B8FF" font-family="sans-serif" font-size="11" textLength="46">: double</text></a><a xlink:actuate="onRequest" xlink:href="#g" xlink:show="new" xlink:title="#phantom_resource" xlink:type="simple" target="_top"><rect id="g" width="198" height="39.789" x="195.5" y="404" fill="#3D176E" rx="2.5" ry="2.5" style="stroke:#000d19;stroke-width:1.5"/><circle cx="210.5" cy="423.894" r="11" fill="#E98DF7" style="stroke:#000d19;stroke-width:1"/><path d="M213.469 429.535q-.578.297-1.219.438-.64.156-1.344.156-2.5 0-3.828-1.64-1.312-1.657-1.312-4.782t1.312-4.781q1.328-1.656 3.828-1.656.703 0 1.344.156.656.156 1.219.453v2.719q-.625-.579-1.219-.844-.594-.281-1.219-.281-1.344 0-2.031 1.078-.688 1.062-.688 3.156 0 2.094.688 3.172.688 1.062 2.031 1.062.625 0 1.219-.265.594-.281 1.219-.86v2.72Z"/><text x="229.5" y="429.78" fill="#D9B8FF" font-family="Helvetica" font-size="17" textLength="156">phantom_resource</text></a><path fill="none" d="M294.5 701.27v100.44m-7-100.46 7-20 7 20h-14zm7-236.97v100.58m-7-100.61 7-20 7 20h-14zm-172.21 611.14c13.06 35.65 28.35 77.35 37.1 101.21m-43.77-99.06-.31-21.19 13.45 16.37-13.14 4.82zm140.45-4.62c-26.32 36.18-57.69 79.27-75.45 103.68m70.08-108.19 17.43-12.06-6.11 20.29-11.32-8.23zm50.8-206.25v100.6m-7-100.61 7-20 7 20h-14zm7-558.67v100.27m-7-100.47 7-20 7 20h-14z" style="stroke:#ffaf37;stroke-width:2"/></svg>

<svg xmlns="http://www.w3.org/2000/svg" xmlns:xlink="http://www.w3.org/1999/xlink" width="400" height="1222" preserveAspectRatio="none" style="width:400px;height:1222px;background:#00000000"><a xlink:actuate="onRequest" xlink:href="#a" xlink:show="new" xlink:title="#gcp_resource" xlink:type="simple" target="_top"><rect id="a" width="169" height="93.398" x="7" y="963" fill="#3D176E" rx="2.5" ry="2.5" style="stroke:#000d19;stroke-width:1.5"/><circle cx="30.55" cy="982.894" r="11" fill="#E98DF7" style="stroke:#000d19;stroke-width:1"/><path d="M33.519 988.535q-.578.297-1.219.438-.64.156-1.344.156-2.5 0-3.828-1.64-1.312-1.657-1.312-4.782t1.312-4.781q1.328-1.657 3.828-1.657.703 0 1.344.157.656.156 1.219.453v2.719q-.625-.578-1.219-.844-.594-.281-1.219-.281-1.343 0-2.031 1.078-.688 1.062-.688 3.156 0 2.094.688 3.172.688 1.062 2.031 1.062.625 0 1.219-.265.594-.282 1.219-.86v2.72Z"/><text x="51.45" y="988.78" fill="#D9B8FF" font-family="Helvetica" font-size="17" textLength="108">gcp_resource</text><path d="M8 1002.789h167" style="stroke:#000d19;stroke-width:1.5"/><text x="18" y="1022" fill="#D9B8FF" font-family="sans-serif" font-size="11" font-weight="bold" textLength="23">link</text><text x="41" y="1022" fill="#D9B8FF" font-family="sans-serif" font-size="11" textLength="41">: string</text><text x="18" y="1044.804" fill="#D9B8FF" font-family="sans-serif" font-size="11" font-weight="bold" textLength="106">label_fingerprint</text><text x="124" y="1044.804" fill="#D9B8FF" font-family="sans-serif" font-size="11" textLength="41">: string</text></a><a xlink:actuate="onRequest" xlink:href="#b" xlink:show="new" xlink:title="#resource" xlink:type="simple" target="_top"><rect id="b" width="195" height="275.836" x="197" y="7" fill="#3D176E" rx="2.5" ry="2.5" style="stroke:#000d19;stroke-width:1.5"/><circle cx="249.75" cy="26.895" r="11" fill="#E98DF7" style="stroke:#000d19;stroke-width:1"/><path d="M252.719 32.535q-.578.297-1.219.438-.64.156-1.344.156-2.5 0-3.828-1.64-1.312-1.657-1.312-4.782t1.312-4.781q1.328-1.656 3.828-1.656.703 0 1.344.156.656.156 1.219.453v2.719q-.625-.578-1.219-.844-.594-.281-1.219-.281-1.344 0-2.031 1.078-.688 1.062-.688 3.156 0 2.094.688 3.172.688 1.062 2.031 1.062.625 0 1.219-.265.594-.281 1.219-.86v2.72Z"/><text x="275.25" y="32.78" fill="#D9B8FF" font-family="Helvetica" font-size="17" textLength="71">resource</text><path d="M198 46.789h193" style="stroke:#000d19;stroke-width:1.5"/><text x="208" y="65.999" fill="#D9B8FF" font-family="sans-serif" font-size="11" font-weight="bold" textLength="12">id</text><text x="220" y="65.999" fill="#D9B8FF" font-family="sans-serif" font-size="11" textLength="41">: string</text><text x="208" y="88.804" fill="#D9B8FF" font-family="sans-serif" font-size="11" font-weight="bold" textLength="28">tags</text><text x="236" y="88.804" fill="#D9B8FF" font-family="sans-serif" font-size="11" textLength="145">: dictionary[string, string]</text><text x="208" y="111.609" fill="#D9B8FF" font-family="sans-serif" font-size="11" font-weight="bold" textLength="35">name</text><text x="243" y="111.609" fill="#D9B8FF" font-family="sans-serif" font-size="11" textLength="41">: string</text><text x="208" y="134.414" fill="#D9B8FF" font-family="sans-serif" font-size="11" font-weight="bold" textLength="35">ctime</text><text x="243" y="134.414" fill="#D9B8FF" font-family="sans-serif" font-size="11" textLength="58">: datetime</text><text x="208" y="157.218" fill="#D9B8FF" font-family="sans-serif" font-size="11" font-weight="bold" textLength="24">age</text><text x="232" y="157.218" fill="#D9B8FF" font-family="sans-serif" font-size="11" textLength="55">: duration</text><text x="208" y="180.023" fill="#D9B8FF" font-family="sans-serif" font-size="11" font-weight="bold" textLength="39">mtime</text><text x="247" y="180.023" fill="#D9B8FF" font-family="sans-serif" font-size="11" textLength="58">: datetime</text><text x="208" y="202.828" fill="#D9B8FF" font-family="sans-serif" font-size="11" font-weight="bold" textLength="75">last_update</text><text x="283" y="202.828" fill="#D9B8FF" font-family="sans-serif" font-size="11" textLength="55">: duration</text><text x="208" y="225.632" fill="#D9B8FF" font-family="sans-serif" font-size="11" font-weight="bold" textLength="36">atime</text><text x="244" y="225.632" fill="#D9B8FF" font-family="sans-serif" font-size="11" textLength="58">: datetime</text><text x="208" y="248.437" fill="#D9B8FF" font-family="sans-serif" font-size="11" font-weight="bold" textLength="74">last_access</text><text x="282" y="248.437" fill="#D9B8FF" font-family="sans-serif" font-size="11" textLength="55">: duration</text><text x="208" y="271.242" fill="#D9B8FF" font-family="sans-serif" font-size="11" font-weight="bold" textLength="27">kind</text><text x="235" y="271.242" fill="#D9B8FF" font-family="sans-serif" font-size="11" textLength="41">: string</text></a><a xlink:actuate="onRequest" xlink:href="#c" xlink:show="new" xlink:title="#type" xlink:type="simple" target="_top"><rect id="c" width="79" height="39.789" x="255" y="802" fill="#3D176E" rx="2.5" ry="2.5" style="stroke:#000d19;stroke-width:1.5"/><circle cx="270" cy="821.894" r="11" fill="#E98DF7" style="stroke:#000d19;stroke-width:1"/><path d="M272.969 827.535q-.578.297-1.219.438-.64.156-1.344.156-2.5 0-3.828-1.64-1.312-1.657-1.312-4.782t1.312-4.781q1.328-1.657 3.828-1.657.703 0 1.344.157.656.156 1.219.453v2.719q-.625-.578-1.219-.844-.594-.281-1.219-.281-1.344 0-2.031 1.078-.688 1.062-.688 3.156 0 2.094.688 3.172.688 1.062 2.031 1.062.625 0 1.219-.265.594-.282 1.219-.86v2.72Z"/><text x="289" y="827.78" fill="#D9B8FF" font-family="Helvetica" font-size="17" textLength="37">type</text></a><a xlink:actuate="onRequest" xlink:href="#d" xlink:show="new" xlink:title="#quota" xlink:type="simple" target="_top"><rect id="d" width="134" height="116.203" x="227.5" y="565" fill="#3D176E" rx="2.5" ry="2.5" style="stroke:#000d19;stroke-width:1.5"/><circle cx="262.3" cy="584.894" r="11" fill="#E98DF7" style="stroke:#000d19;stroke-width:1"/><path d="M265.269 590.535q-.578.297-1.219.438-.64.156-1.344.156-2.5 0-3.828-1.64-1.312-1.657-1.312-4.782t1.312-4.781q1.328-1.657 3.828-1.657.703 0 1.344.157.656.156 1.219.453v2.719q-.625-.578-1.219-.844-.594-.281-1.219-.281-1.344 0-2.031 1.078-.688 1.062-.688 3.156 0 2.094.688 3.172.688 1.062 2.031 1.062.625 0 1.219-.265.594-.282 1.219-.86v2.72Z"/><text x="285.7" y="590.78" fill="#D9B8FF" font-family="Helvetica" font-size="17" textLength="48">quota</text><path d="M228.5 604.789h132" style="stroke:#000d19;stroke-width:1.5"/><text x="238.5" y="624" fill="#D9B8FF" font-family="sans-serif" font-size="11" font-weight="bold" textLength="37">quota</text><text x="275.5" y="624" fill="#D9B8FF" font-family="sans-serif" font-size="11" textLength="46">: double</text><text x="238.5" y="646.804" fill="#D9B8FF" font-family="sans-serif" font-size="11" font-weight="bold" textLength="39">usage</text><text x="277.5" y="646.804" fill="#D9B8FF" font-family="sans-serif" font-size="11" textLength="46">: double</text><text x="238.5" y="669.609" fill="#D9B8FF" font-family="sans-serif" font-size="11" font-weight="bold" textLength="71">quota_type</text><text x="309.5" y="669.609" fill="#D9B8FF" font-family="sans-serif" font-size="11" textLength="41">: string</text></a><a xlink:actuate="onRequest" xlink:href="#e" xlink:show="new" xlink:title="#gcp_disk_type" xlink:type="simple" target="_top"><rect id="e" width="158" height="39.789" x="80.5" y="1177" fill="#3D176E" rx="2.5" ry="2.5" style="stroke:#000d19;stroke-width:1.5"/><circle cx="95.5" cy="1196.895" r="11" fill="#E98DF7" style="stroke:#000d19;stroke-width:1"/><path d="M98.469 1202.535q-.578.297-1.219.438-.64.156-1.344.156-2.5 0-3.828-1.64-1.312-1.657-1.312-4.782t1.312-4.781q1.328-1.656 3.828-1.656.703 0 1.344.156.656.156 1.219.453v2.719q-.625-.578-1.219-.844-.594-.281-1.219-.281-1.344 0-2.031 1.078-.688 1.062-.688 3.156 0 2.094.688 3.172.688 1.062 2.031 1.062.625 0 1.219-.265.594-.281 1.219-.86v2.72Z"/><text x="114.5" y="1202.78" fill="#D9B8FF" font-family="Helvetica" font-size="17" textLength="116">gcp_disk_type</text></a><a xlink:actuate="onRequest" xlink:href="#f" xlink:show="new" xlink:title="#volume_type" xlink:type="simple" target="_top"><rect id="f" width="168" height="93.398" x="210.5" y="963" fill="#3D176E" rx="2.5" ry="2.5" style="stroke:#000d19;stroke-width:1.5"/><circle cx="233.15" cy="982.894" r="11" fill="#E98DF7" style="stroke:#000d19;stroke-width:1"/><path d="M236.119 988.535q-.578.297-1.219.438-.64.156-1.344.156-2.5 0-3.828-1.64-1.312-1.657-1.312-4.782t1.312-4.781q1.328-1.657 3.828-1.657.703 0 1.344.157.656.156 1.219.453v2.719q-.625-.578-1.219-.844-.594-.281-1.219-.281-1.344 0-2.031 1.078-.688 1.062-.688 3.156 0 2.094.688 3.172.688 1.062 2.031 1.062.625 0 1.219-.265.594-.282 1.219-.86v2.72Z"/><text x="253.85" y="988.78" fill="#D9B8FF" font-family="Helvetica" font-size="17" textLength="109">volume_type</text><path d="M211.5 1002.789h166" style="stroke:#000d19;stroke-width:1.5"/><text x="221.5" y="1022" fill="#D9B8FF" font-family="sans-serif" font-size="11" font-weight="bold" textLength="80">volume_type</text><text x="301.5" y="1022" fill="#D9B8FF" font-family="sans-serif" font-size="11" textLength="41">: string</text><text x="221.5" y="1044.804" fill="#D9B8FF" font-family="sans-serif" font-size="11" font-weight="bold" textLength="100">ondemand_cost</text><text x="321.5" y="1044.804" fill="#D9B8FF" font-family="sans-serif" font-size="11" textLength="46">: double</text></a><a xlink:actuate="onRequest" xlink:href="#g" xlink:show="new" xlink:title="#phantom_resource" xlink:type="simple" target="_top"><rect id="g" width="198" height="39.789" x="195.5" y="404" fill="#3D176E" rx="2.5" ry="2.5" style="stroke:#000d19;stroke-width:1.5"/><circle cx="210.5" cy="423.894" r="11" fill="#E98DF7" style="stroke:#000d19;stroke-width:1"/><path d="M213.469 429.535q-.578.297-1.219.438-.64.156-1.344.156-2.5 0-3.828-1.64-1.312-1.657-1.312-4.782t1.312-4.781q1.328-1.656 3.828-1.656.703 0 1.344.156.656.156 1.219.453v2.719q-.625-.579-1.219-.844-.594-.281-1.219-.281-1.344 0-2.031 1.078-.688 1.062-.688 3.156 0 2.094.688 3.172.688 1.062 2.031 1.062.625 0 1.219-.265.594-.281 1.219-.86v2.72Z"/><text x="229.5" y="429.78" fill="#D9B8FF" font-family="Helvetica" font-size="17" textLength="156">phantom_resource</text></a><path fill="none" d="M294.5 701.27v100.44M287.5 701.25l7-20 7 20h-14zM294.5 464.28v100.58M287.5 464.25l7-20 7 20h-14zM115.29 1075.39c13.06 35.65 28.35 77.35 37.1 101.21M108.62 1077.54l-.31-21.19 13.45 16.37-13.14 4.82zM249.07 1072.92c-26.32 36.18-57.69 79.27-75.45 103.68M243.7 1068.41l17.43-12.06-6.11 20.29-11.32-8.23zM294.5 862.16v100.6M287.5 862.15l7-20 7 20h-14zM294.5 303.48v100.27M287.5 303.28l7-20 7 20h-14z" style="stroke:#ffaf37;stroke-width:2"/></svg>
